img/wa-red.svg

<svg width="34" height="34" viewBox="0 0 34 34" fill="none" xmlns="http://www.w3.org/2000/svg">
<g id="Group">
<path id="Vector" d="M0 17.8713C0 17.2966 0 16.7211 0 16.1464C0.0204638 16.0331 0.0427071 15.9206 0.059612 15.8072C0.16549 15.0929 0.227771 14.3688 0.382584 13.665C1.25541 9.71352 3.32493 6.48521 6.59558 4.06705C10.61 1.09883 15.1254 0.118206 20.0376 1.13134C23.9987 1.94852 27.2204 3.99587 29.6832 7.15828C32.3417 10.5729 33.4486 14.4611 33.0331 18.7403C32.6967 22.1962 31.3426 25.2505 29.0159 27.8594C26.449 30.738 23.246 32.5305 19.4148 33.2027C18.7911 33.3125 18.1594 33.3732 17.5313 33.4566C16.9271 33.4566 16.3239 33.4566 15.7198 33.4566C15.25 33.4048 14.7784 33.3635 14.3104 33.2994C11.9535 32.976 9.76391 32.1966 7.75668 30.9322C7.54937 30.8012 7.37142 30.7696 7.13031 30.8469C5.23874 31.4559 3.34272 32.0499 1.44848 32.6482C1.34438 32.6808 1.2394 32.7115 1.09259 32.7554C1.75366 30.8109 2.39071 28.9279 3.03932 27.0492C3.12652 26.797 3.11584 26.6081 2.95213 26.3779C1.56504 24.4263 0.669968 22.2691 0.260691 19.9204C0.141467 19.2438 0.0854142 18.5549 0 17.8713ZM21.9675 26.3313C21.9737 26.3067 21.9799 26.2812 21.9862 26.2566C22.1801 26.2452 22.3759 26.2505 22.5663 26.2197C22.8314 26.1758 23.1001 26.1292 23.3519 26.0414C25.683 25.2295 26.4766 24.1267 26.5398 21.9809C26.5496 21.6549 26.4259 21.4353 26.1261 21.2938C24.8929 20.713 23.6669 20.1163 22.4284 19.5461C21.7842 19.2491 21.4105 19.3712 20.9816 19.945C20.6685 20.3641 20.3597 20.7877 20.0341 21.1971C19.5243 21.8395 19.1693 21.9256 18.4094 21.6189C15.6379 20.503 13.5942 18.576 12.0621 16.0752C11.8548 15.7378 11.8815 15.4303 12.1377 15.1386C12.434 14.8011 12.7267 14.4593 13.0372 14.1351C13.5497 13.6 13.6752 13.0534 13.3335 12.3443C12.7694 11.1757 12.3032 9.96131 11.772 8.77596C11.6929 8.59934 11.5105 8.38757 11.3387 8.34715C10.4695 8.13978 9.56194 8.09409 8.8377 8.68193C7.22818 9.98679 6.72815 11.731 7.03511 13.7186C7.19882 14.7827 7.62856 15.7633 8.20154 16.6701C9.46763 18.6744 10.9606 20.4951 12.7329 22.0934C14.7651 23.9272 17.1522 25.1029 19.7707 25.8507C20.4896 26.0572 21.2343 26.174 21.9675 26.3313Z" fill="#C8102E"/>
</g>
</svg>

<svg width="34" height="34" fill="none" xmlns="http://www.w3.org/2000/svg"><path d="M0 17.871v-1.725c.02-.113.043-.225.06-.339.105-.714.168-1.438.323-2.142.872-3.951 2.942-7.18 6.213-9.598 4.014-2.968 8.53-3.949 13.442-2.936 3.96.818 7.182 2.865 9.645 6.027 2.659 3.415 3.766 7.303 3.35 11.582-.336 3.456-1.69 6.51-4.017 9.12-2.567 2.878-5.77 4.67-9.601 5.343-.624.11-1.256.17-1.884.254H15.72c-.47-.052-.942-.093-1.41-.158-2.357-.323-4.546-1.102-6.553-2.367-.208-.13-.386-.162-.627-.085-1.891.609-3.787 1.203-5.682 1.801-.104.033-.209.063-.355.107.66-1.944 1.298-3.827 1.946-5.706.088-.252.077-.44-.087-.671A15.657 15.657 0 01.261 19.92C.14 19.244.085 18.555 0 17.871zm21.968 8.46l.018-.074c.194-.012.39-.007.58-.037a4.64 4.64 0 00.786-.179c2.331-.811 3.125-1.914 3.188-4.06.01-.326-.114-.546-.414-.687-1.233-.581-2.46-1.178-3.698-1.748-.644-.297-1.018-.175-1.446.399-.313.42-.622.843-.948 1.252-.51.643-.865.729-1.625.422-2.771-1.116-4.815-3.043-6.347-5.544-.207-.337-.18-.645.076-.936.296-.338.589-.68.9-1.004.512-.535.637-1.082.296-1.79-.565-1.17-1.03-2.384-1.562-3.569-.08-.177-.261-.388-.433-.429-.87-.207-1.777-.253-2.501.335-1.61 1.305-2.11 3.049-1.803 5.037.164 1.064.594 2.044 1.167 2.951 1.266 2.004 2.759 3.825 4.53 5.423 2.033 1.834 4.42 3.01 7.039 3.758.719.206 1.463.323 2.197.48z" fill="#C8102E"/></svg>
